icons/svg/linkedin-box.svg

﻿<?xml version="1.0" encoding="utf-8"?>
<!DOCTYPE svg PUBLIC "-//W3C//DTD SVG 1.1//EN" "http://www.w3.org/Graphics/SVG/1.1/DTD/svg11.dtd">
<svg xmlns="http://www.w3.org/2000/svg" xmlns:xlink="http://www.w3.org/1999/xlink" version="1.1" baseProfile="full" width="24" height="24" viewBox="0 0 24.00 24.00" enable-background="new 0 0 24.00 24.00" xml:space="preserve">
	<path fill="#000000" fill-opacity="1" stroke-width="0.2" stroke-linejoin="round" d="M 18.9994,18.9981L 15.9994,18.9981L 15.9994,13.6981C 15.9994,12.8701 15.3274,12.1981 14.4994,12.1981C 13.6714,12.1981 12.9994,12.8701 12.9994,13.6981L 12.9994,18.9981L 9.9994,18.9981L 9.9994,9.99807L 12.9994,9.99807L 12.9994,11.1981C 13.5174,10.3601 14.5854,9.79807 15.4994,9.79807C 17.4324,9.79807 18.9994,11.3651 18.9994,13.2981M 6.4994,8.31007C 5.4984,8.31007 4.6864,7.50007 4.6864,6.49807C 4.6864,5.49607 5.4984,4.68507 6.4994,4.68507C 7.5004,4.68507 8.3114,5.49607 8.3114,6.49807C 8.3114,7.50007 7.5004,8.31007 6.4994,8.31007 Z M 7.9994,18.9981L 4.9994,18.9981L 4.9994,9.99807L 7.9994,9.99807M 19.9994,1.99807L 3.9994,1.99807C 2.8944,1.99807 2.00917,2.89307 2.00917,3.99807L 1.9994,19.9981C 1.9994,21.1016 2.8944,21.9981 3.9994,21.9981L 19.9994,21.9981C 21.1029,21.9981 21.9994,21.1016 21.9994,19.9981L 21.9994,3.99807C 21.9994,2.89307 21.1029,1.99807 19.9994,1.99807 Z "/>
</svg>

<svg xmlns="http://www.w3.org/2000/svg" version="1.1" baseProfile="full" width="24" height="24" viewBox="0 0 24.00 24.00" xml:space="preserve"><path fill="#000" fill-opacity="1" stroke-width=".2" stroke-linejoin="round" d="M19 18.998h-3v-5.3c0-.828-.673-1.5-1.5-1.5-.83 0-1.5.672-1.5 1.5v5.3h-3v-9h3v1.2c.517-.838 1.585-1.4 2.5-1.4 1.932 0 3.5 1.567 3.5 3.5M6.5 8.31c-1.002 0-1.814-.81-1.814-1.812S5.498 4.685 6.5 4.685c1 0 1.81.81 1.81 1.813C8.31 7.5 7.5 8.31 6.5 8.31zM8 18.998H5v-9h3m12-8H4c-1.106 0-1.99.895-1.99 2l-.01 16c0 1.104.894 2 2 2h16c1.103 0 2-.896 2-2v-16c0-1.105-.897-2-2-2z"/></svg>
